/* XPM */
static const char *button_active[] = {
/* columns rows colors chars-per-pixel */
"24 24 1 1 ",
"  c #2C2C2C s active_color_2",
/* pixels */
"                        ",
"                        ",
"                        ",
"                        ",
"                        ",
"                        ",
"                        ",
"                        ",
"                        ",
"                        ",
"                        ",
"                        ",
"                        ",
"                        ",
"                        ",
"                        ",
"                        ",
"                        ",
"                        ",
"                        ",
"                        ",
"                        ",
"                        ",
"                        "
};
