/* XPM */
static const char *menu_inactive[] = {
/* columns rows colors chars-per-pixel */
"24 24 1 1 ",
"  c gray20 s inactive_color_1",
/* pixels */
"                        ",
"                        ",
"                        ",
"                        ",
"                        ",
"                        ",
"                        ",
"                        ",
"                        ",
"                        ",
"                        ",
"                        ",
"                        ",
"                        ",
"                        ",
"                        ",
"                        ",
"                        ",
"                        ",
"                        ",
"                        ",
"                        ",
"                        ",
"                        "
};
